img/iconspace_Presentation.svg

<svg width="64" height="64" viewBox="0 0 64 64" fill="none" xmlns="http://www.w3.org/2000/svg">
<g id="iconspace_Presentation Chart Up">
<path id="Shape" fill-rule="evenodd" clip-rule="evenodd" d="M32 64C49.6731 64 64 49.6731 64 32C64 14.3269 49.6731 0 32 0C14.3269 0 0 14.3269 0 32C0 49.6731 14.3269 64 32 64Z" fill="#E6F0FC"/>
<path id="Shape_2" d="M16 12H48C49.6569 12 51 13.3431 51 15V41C51 42.6569 49.6569 44 48 44H16C14.3431 44 13 42.6569 13 41V15C13 13.3431 14.3431 12 16 12Z" fill="#154E84"/>
<path id="Shape_3" d="M16 14C15.4477 14 15 14.4477 15 15V41C15 41.5523 15.4477 42 16 42H48C48.5523 42 49 41.5523 49 41V15C49 14.4477 48.5523 14 48 14H16Z" fill="white"/>
<path id="Shape_4" d="M11 39C11 38.4477 11.4477 38 12 38H52C52.5523 38 53 38.4477 53 39V41C53 42.6569 51.6569 44 50 44H14C12.3431 44 11 42.6569 11 41V39Z" fill="#154E84"/>
<path id="Shape_5" d="M13 40V41C13 41.5523 13.4477 42 14 42H50C50.5523 42 51 41.5523 51 41V40H13Z" fill="#52ABE2"/>
<path id="Shape_6" d="M14 12H50C51.6569 12 53 13.3431 53 15V17C53 17.5523 52.5523 18 52 18H12C11.4477 18 11 17.5523 11 17V15C11 13.3431 12.3431 12 14 12Z" fill="#154E84"/>
<path id="Shape_7" d="M51 16V15C51 14.4477 50.5523 14 50 14H14C13.4477 14 13 14.4477 13 15V16H51Z" fill="#52ABE2"/>
<path id="Shape_8" d="M32 42C32.7434 42 33.2269 42.7823 32.8944 43.4472L28.8944 51.4472C28.725 51.786 28.3788 52 28 52H24C23.2566 52 22.7731 51.2177 23.1056 50.5528L27.1056 42.5528C27.275 42.214 27.6212 42 28 42H32Z" fill="#154E84"/>
<path id="Shape_9" d="M28.618 44L25.618 50H27.382L30.382 44H28.618Z" fill="#FFC200"/>
<path id="Shape_10" d="M32 42C31.2566 42 30.7731 42.7823 31.1056 43.4472L35.1056 51.4472C35.275 51.786 35.6212 52 36 52H40C40.7434 52 41.2269 51.2177 40.8944 50.5528L36.8944 42.5528C36.725 42.214 36.3788 42 36 42H32Z" fill="#154E84"/>
<path id="Shape_11" d="M35.382 44L38.382 50H36.618L33.618 44H35.382Z" fill="#FFC200"/>
<path id="Shape_12" d="M32.3753 31.7808C32.7405 32.073 33.2595 32.073 33.6247 31.7808L43.6247 23.7808C44.056 23.4358 44.1259 22.8065 43.7809 22.3753C43.4359 21.944 42.8066 21.8741 42.3753 22.2191L33 29.7194L28.6247 26.2191C28.2686 25.9342 27.7648 25.9263 27.4 26.2L19.4 32.2C18.9582 32.5313 18.8686 33.1581 19.2 33.6C19.5314 34.0418 20.1582 34.1313 20.6 33.8L27.9802 28.2648L32.3753 31.7808Z" fill="#154E84"/>
<path id="Shape_13" d="M42 24V28C42 28.5523 42.4477 29 43 29C43.5523 29 44 28.5523 44 28V23C44 22.4477 43.5523 22 43 22H38C37.4477 22 37 22.4477 37 23C37 23.5523 37.4477 24 38 24H42Z" fill="#154E84"/>
</g>
</svg>

<svg width="64" height="64" fill="none" xmlns="http://www.w3.org/2000/svg"><path fill-rule="evenodd" clip-rule="evenodd" d="M32 64c17.673 0 32-14.327 32-32C64 14.327 49.673 0 32 0 14.327 0 0 14.327 0 32c0 17.673 14.327 32 32 32Z" fill="#E6F0FC"/><path d="M16 12h32a3 3 0 0 1 3 3v26a3 3 0 0 1-3 3H16a3 3 0 0 1-3-3V15a3 3 0 0 1 3-3Z" fill="#154E84"/><path d="M16 14a1 1 0 0 0-1 1v26a1 1 0 0 0 1 1h32a1 1 0 0 0 1-1V15a1 1 0 0 0-1-1H16Z" fill="#fff"/><path d="M11 39a1 1 0 0 1 1-1h40a1 1 0 0 1 1 1v2a3 3 0 0 1-3 3H14a3 3 0 0 1-3-3v-2Z" fill="#154E84"/><path d="M13 40v1a1 1 0 0 0 1 1h36a1 1 0 0 0 1-1v-1H13Z" fill="#52ABE2"/><path d="M14 12h36a3 3 0 0 1 3 3v2a1 1 0 0 1-1 1H12a1 1 0 0 1-1-1v-2a3 3 0 0 1 3-3Z" fill="#154E84"/><path d="M51 16v-1a1 1 0 0 0-1-1H14a1 1 0 0 0-1 1v1h38Z" fill="#52ABE2"/><path d="M32 42a1 1 0 0 1 .894 1.447l-4 8A1 1 0 0 1 28 52h-4a1 1 0 0 1-.894-1.447l4-8A1 1 0 0 1 28 42h4Z" fill="#154E84"/><path d="m28.618 44-3 6h1.764l3-6h-1.764Z" fill="#FFC200"/><path d="M32 42a1 1 0 0 0-.894 1.447l4 8A1 1 0 0 0 36 52h4a1 1 0 0 0 .894-1.447l-4-8A1 1 0 0 0 36 42h-4Z" fill="#154E84"/><path d="m35.382 44 3 6h-1.764l-3-6h1.764Z" fill="#FFC200"/><path d="M32.375 31.78a1 1 0 0 0 1.25 0l10-8a1 1 0 1 0-1.25-1.56L33 29.72l-4.375-3.5a1 1 0 0 0-1.225-.02l-8 6a1 1 0 1 0 1.2 1.6l7.38-5.535 4.395 3.516Z" fill="#154E84"/><path d="M42 24v4a1 1 0 1 0 2 0v-5a1 1 0 0 0-1-1h-5a1 1 0 1 0 0 2h4Z" fill="#154E84"/></svg>
